lib/healthicons/icons/solid/places/mosque.svg

<svg fill="none" height="48" viewBox="0 0 48 48" width="48" xmlns="http://www.w3.org/2000/svg"><path clip-rule="evenodd" d="m6.19482 14.9323c1.26574-.4027 2.26911-.6345 3.30513-.6345 1.03255 0 2.03265.2302 3.29245.6305-.8912-4.0664-3.2924-8.88045-3.2924-8.88045s-2.47294 4.99575-3.30518 8.88445zm6.80518 2.1696-.3163-.1054c-1.4852-.4951-2.3554-.6987-3.18375-.6987-.8284 0-1.69855.2036-3.18378.6987l-.31617.1054v24.946h7zm4 10.946v4l-2-.0001 4 .0001v-1c0-.5523.4477-1 1-1s1 .4477 1 1v1h2v-1c0-.5523.4477-1 1-1s1 .4477 1 1v1h2v-1c0-.5523.4477-1 1-1s1 .4477 1 1v1h4-2v-4zm15.2068-2h-16.4136c-.5096-1.1564-.7932-2.4959-.7932-4.0001 0-3.7649 3.1754-6.4985 5.8358-8.7888.8018-.6903 1.5569-1.3403 2.1642-1.9662v-3.24495h2v3.24495c.6073.6259 1.3624 1.2759 2.1642 1.9662 2.6604 2.2903 5.8358 5.0239 5.8358 8.7888 0 1.5042-.2836 2.8437-.7932 4.0001zm2.7932 16h7v-24.9998c-.1048 0-.2114-.0166-.3163-.0516-1.4852-.4951-2.3554-.6987-3.1837-.6987-.8284 0-1.6986.2036-3.1838.6987l-.3162.1054zm.1948-27.1156c1.2658-.4027 2.2691-.6345 3.3051-.6345 1.0326 0 2.0327.2302 3.2925.6305-.8912-4.0664-3.2924-8.88045-3.2924-8.88045s-2.4729 4.99575-3.3052 8.88445zm-2.1948 27.1156v-8h-18v8h3.9999v-1.1193c0-1.5541.9002-2.9675 2.3085-3.6247l2.6915-1.2561 2.6916 1.2561c1.4083.6572 2.3084 2.0706 2.3084 3.6247v1.1193z" fill="#333" fill-rule="evenodd"/></svg>

<svg width="48" height="48" viewBox="0 0 48 48" fill="none" xmlns="http://www.w3.org/2000/svg">
<path fill-rule="evenodd" clip-rule="evenodd" d="M6.19482 14.9323C7.46056 14.5296 8.46393 14.2978 9.49995 14.2978C10.5325 14.2978 11.5326 14.528 12.7924 14.9283C11.9012 10.8619 9.5 6.04785 9.5 6.04785C9.5 6.04785 7.02706 11.0436 6.19482 14.9323ZM13 17.1019L12.6837 16.9965C11.1985 16.5014 10.3283 16.2978 9.49995 16.2978C8.67155 16.2978 7.8014 16.5014 6.31617 16.9965L6 17.1019V42.0479H13L13 17.1019ZM17 28.0479V32.0479L15 32.0478L19 32.0479V31.0479C19 30.4956 19.4477 30.0479 20 30.0479C20.5523 30.0479 21 30.4956 21 31.0479V32.0479L23 32.0479V31.0479C23 30.4956 23.4477 30.0479 24 30.0479C24.5523 30.0479 25 30.4956 25 31.0479V32.0479L27 32.0479V31.0479C27 30.4956 27.4477 30.0479 28 30.0479C28.5523 30.0479 29 30.4956 29 31.0479V32.0479L33 32.0479L31 32.0479V28.0479H17ZM32.2068 26.0479H15.7932C15.2836 24.8915 15 23.552 15 22.0478C15 18.2829 18.1754 15.5493 20.8358 13.259C21.6376 12.5687 22.3927 11.9187 23 11.2928V8.04785H25V11.2928C25.6073 11.9187 26.3624 12.5687 27.1642 13.259C29.8246 15.5493 33 18.2829 33 22.0478C33 23.552 32.7164 24.8915 32.2068 26.0479ZM35 42.0479H42V17.0481C41.8952 17.0481 41.7886 17.0315 41.6837 16.9965C40.1985 16.5014 39.3283 16.2978 38.5 16.2978C37.6716 16.2978 36.8014 16.5014 35.3162 16.9965L35 17.1019L35 42.0479ZM35.1948 14.9323C36.4606 14.5296 37.4639 14.2978 38.4999 14.2978C39.5325 14.2978 40.5326 14.528 41.7924 14.9283C40.9012 10.8619 38.5 6.04785 38.5 6.04785C38.5 6.04785 36.0271 11.0436 35.1948 14.9323ZM33 42.0479V34.0479H15L15 42.0479H18.9999V40.9286C18.9999 39.3745 19.9001 37.9611 21.3084 37.3039L23.9999 36.0478L26.6915 37.3039C28.0998 37.9611 28.9999 39.3745 28.9999 40.9286V42.0479H33Z" fill="#333333"/>
</svg>
